X:1
T:[ID 5-22]
T:[ID 5-22]
T:Bezeichnung standardisiert: S\"achsischer Rebell; Sacksische Rebell In dieser Quelle auch als: S\"acksischer Rebell In dieser Quelle auch als: Sachsische Rebel
T:Urheber unbekannt Datum in der hier transkribierten schriftlichen Quelle: 1792
C:Urheber unbekannt
C:Datum in der hier transkribierten schriftlichen Quelle: 1792
L:1/8
M:2/4
K:G
V:1 treble 
V:1
 GGGA | B/c/B/A/ GA | BABc | d/c/B/A/ G/A/B/c/ | dddd | de/f/ gd | (dc)(cB) | B2 A2 ::!p! d2 c2 | %9
 B2 A2 | (3ded (3cdc | (3BcB A2 | G/F/G/A/ B/A/B/c/ | de/f/ gc | BA/G/ A/c/A/F/ | G2 G,2 :| %16

